X:42
S:Efter Elisabet Olofsdotter, Flors i Burs.
Q:"Långsamt ock vemodsfullt."
M:3/4
L:1/8
K:Dm
A,|D> F A2 E> G|F> D E2 ^C> A,|
w:Hur öds-ligt är det ej här på jor-den! I
D> F A2 E> G|F> D E2 z::A|A> ^c d2 A> =c|
w:sorg till-brin-gas min lev-nads-dag. De ve-ka blomst-ren_
B> A G3 B|A F LD2 F2|(G/F/) (E/F/) D2 z:|
w:fal-la av. Så gör ock jag ut-i_ min_ grav.
